X:113
T:Mais qu'il vous legne
R:Virelai
C:Anonyme
L:1/8
K:C
V:1
P:A
C2D4 | C2G4 | F2(FEFD) | E2C2z2 | (AG2)F ED |
C2D4 | C2(CB,) (CA,) | B,2z2z2 | (B,C)D2C2 | E2(FE) (FG) |
E2z2z2 | (GF)E2D2 | C2B,4 | (A,B,C) z (A,B,) | HC6!fine! || 
P:B
|: G4F2 | G2A4 | G2 (AGFE) | D2z2z2 | F4E2 |
F2G4 | ^F2 (G"(=)"FED) | C2z2z2 | E"(#)"F G2"(=)"F2 |
G2 (GFED) |1 (CD2C2B,) | D6 :|2 (C2DC2B,) | C6 || 
V:2
F,6 | C,6 | F,6 | C,6 | C4-CB, |
A,2G,4 | C,6 | D,4E,F, | G,4A,2 | E,2D,4 |
A,2CB,CA, | G,6 | A,2G,4 | F,2E,2D,2 | HC,6 ||
|: C2B,2A,2 | G,2F,4 | G,2D,4 | G,2 CB,A,G, | F,4G,2 |
F,2E,4 | D,2C,4 | A,B,C2B,2 | CB,3A,2 |
G,2G,3B, | A,G,F,2E,2 | D,6 :| A,2E,2D,2 | C,6 ||





